public/images/icons/data.svg

<svg viewBox="0 0 51 50.94" xmlns="http://www.w3.org/2000/svg"><path d="m9 42 11.5-11.5m-8.39-23.33h8.39m5 13.33v-8.33m20 27.5v-10.84m-13.33 15.84h8.33m-10-24.17h-10v10h10zm-21.34-1.67-8.66 5 5 8.66 8.66-5zm-8.6-15v6.67l5.77 3.33 5.78-3.33v-6.67l-5.78-3.33zm28.27 35.06h-6.66l-3.34 5.78 3.34 5.77h6.66l3.34-5.77zm15.84-36.72-5.78 10h11.55zm-19.17 0a5 5 0 1 0 5 5 5 5 0 0 0 -5-5zm20 37.5a5 5 0 1 0 5 5 5 5 0 0 0 -5-5zm-40 0a5 5 0 1 0 5 5 5 5 0 0 0 -5-4.95zm40-17.56a3.34 3.34 0 1 0 3.33 3.34 3.34 3.34 0 0 0 -3.33-3.29z" fill="none" stroke="#fff" stroke-linejoin="round"/></svg>

<svg xmlns="http://www.w3.org/2000/svg" viewBox="0 0 51 50.94"><defs><style>.cls-1{fill:none;stroke:#fff;stroke-linejoin:round;}</style></defs><title>data</title><g id="Layer_2" data-name="Layer 2"><g id="DESIGN_2" data-name="DESIGN 2"><path id="analyzes-data" class="cls-1" d="M9,42,20.5,30.5M12.11,7.17H20.5m5,13.33V12.17m20,27.5V28.83M32.17,44.67H40.5M30.5,20.5h-10v10h10ZM9.16,18.83l-8.66,5,5,8.66,8.66-5Zm-8.6-15V10.5l5.77,3.33,5.78-3.33V3.83L6.33.5ZM28.83,38.89H22.17l-3.34,5.78,3.34,5.77h6.66l3.34-5.77ZM44.67,2.17l-5.78,10H50.44Zm-19.17,0a5,5,0,1,0,5,5A5,5,0,0,0,25.5,2.17Zm20,37.5a5,5,0,1,0,5,5A5,5,0,0,0,45.5,39.67Zm-40,0a5,5,0,1,0,5,5A5,5,0,0,0,5.5,39.72Zm40-17.56a3.34,3.34,0,1,0,3.33,3.34A3.34,3.34,0,0,0,45.5,22.16Z"/></g></g></svg>
